X: 17558
T: History Man, The
R: barndance
M: 4/4
K: Gmajor
BA|:"G"G3A BAGA|BG d2 de/d/BA|G3A BAGA|BGdB "D"A2BA|
"Em"e3f edBG|"D"AGAB "Em"AGEG|"C"c3B "Em"AGEG|"D"AGAB "Em"AGEG|1 "Am"
A6 B/c/B/A/:|2 "D"A3A AGAB|:"C"c3d
"Em"efg2|g/a/gfe "G"d2Bd|"Em"efg2 "G"gagf|"Em"e6 Bd|efg2 "D"f
[1 "G"G3A "D"AGAB:|2 "G"G6||

